icons/gamma.svg

<svg width="14" height="14" xmlns="http://www.w3.org/2000/svg"><path d="M12,0 C13.1045695,0 14,0.8954305 14,2 L14,12 C14,13.1045695 13.1045695,14 12,14 L2,14 C0.8954305,14 0,13.1045695 0,12 L0,2 C0,0.8954305 0.8954305,0 2,0 L12,0 Z M12,2 L2,2 L2,12 L12,12 L12,2 Z M11,3 L11,6 L9,6 L9,5 L6,5 L6,11 L4,11 L4,5 L3,5 L3,3 L11,3 Z"/></svg>

<svg width="14" height="14" xmlns="http://www.w3.org/2000/svg" fill="currentColor"><path d="M12 0a2 2 0 0 1 2 2v10a2 2 0 0 1-2 2H2a2 2 0 0 1-2-2V2a2 2 0 0 1 2-2h10Zm0 2H2v10h10V2Zm-1 1v3H9V5H6v6H4V5H3V3h8Z"/></svg>
